X:101
U: ~ = !turn!
%%topmargin 3cm
T:Joe Burke's Hornpipe
B:Traditional Irish Fiddle Tunes. Randy Miller and Jack Perron.
Z:Transcribed by Ralph Palmer
R:Hornpipe
M:C|
L:1/8
K:G
((3DEF) | GAGE D2 B,D | GFGA ((3Bcd) gf | edcB A2 GA | BAGF [B,2E2] ((3DEF) |
GAGE D2 B,D | GFGA ((3Bcd) gf | edcB A2 GA | BG{/A}GF G2 ::
Bc | d^cde dBGF | GBd^c dgfg | efge dBGA | BA ((3BAG) [F2A2] ((3DEF) |
GAGE D2 B,D | GFGA ((3Bcd) gf | edcB A2 GA | BG {/A}GF G2 :|]
